src/icons/toggle-default.svg

<svg xmlns="http://www.w3.org/2000/svg" width="512" height="512" viewBox="0 0 512 512">
    <path d="M170.3 363.8h171.4c63.1 0 114.3-51.1 114.3-114.3 0-63.2-51-114.3-114.2-114.3H170.3C107.1 135.2 56 186.3 56 249.4s51.1 114.4 114.3 114.4zm0-185.8c39.5 0 71.5 32 71.5 71.5s-32 71.5-71.5 71.5-71.5-32-71.5-71.5 32.1-71.5 71.5-71.5z"/>
</svg>

<?xml version="1.0" encoding="UTF-8"?>
<svg width="512px" height="512px" viewBox="0 0 512 512" version="1.1" xmlns="http://www.w3.org/2000/svg" xmlns:xlink="http://www.w3.org/1999/xlink">
    <!-- Generator: Sketch 62 (91390) - https://sketch.com -->
    <title>toggle-default</title>
    <desc>Created with Sketch.</desc>
    <g id="toggle-default" stroke="none" stroke-width="1" fill="none" fill-rule="evenodd">
        <path d="M170.3,363.8 L341.7,363.8 C404.8,363.8 456,312.7 456,249.5 C456,186.3 405,135.2 341.8,135.2 L170.3,135.2 C107.1,135.2 56,186.3 56,249.4 C56,312.5 107.1,363.8 170.3,363.8 Z M170.3,178 C209.8,178 241.8,210 241.8,249.5 C241.8,289 209.8,321 170.3,321 C130.8,321 98.8,289 98.8,249.5 C98.8,210 130.9,178 170.3,178 Z" id="Shape" fill="#000000" fill-rule="nonzero"></path>
    </g>
</svg>
